assets/img/braze_icons/pie-chart-03.svg

<svg fill="none" height="24" viewBox="0 0 24 24" width="24" xmlns="http://www.w3.org/2000/svg"><g fill="#801ed7"><path d="m11 2.7955c0-.59212 0-.88818-.1454-1.12748-.1161-.19098-.3486-.37168-.5623-.437-.2678-.08184-.51741-.01825-1.01656.10893-4.75743 1.21214-8.27574 5.52522-8.27574 10.66005 0 6.0751 4.92487 11 11 11 1.4348 0 2.8055-.2747 4.0623-.7744.4783-.1902.7174-.2853.8861-.5089.1346-.1785.2165-.4614.1982-.6842-.023-.2791-.197-.5186-.545-.9976l-5.4039-7.4378c-.1242-.1667-.1977-.3733-.1977-.5971z"/><path d="m21.2045 13c.5921 0 .8881 0 1.1274.1454.191.1161.3717.3486.437.5623.0819.2678.0183.5173-.1088 1.0162-.4079 1.6011-1.167 3.0619-2.1905 4.2955-.3296.3973-.4944.5959-.7592.6872-.2115.0729-.5056.0635-.7119-.0229-.2584-.1081-.4327-.3479-.7812-.8276l-3.3318-4.5859c-.2978-.4099-.4467-.6148-.4413-.7859.0046-.149.0755-.2881.1933-.3794.1352-.1049.3886-.1049.8952-.1049z"/><path d="m13 2.7955c0-.59212 0-.88817.1454-1.12748.1161-.19098.3486-.37168.5623-.43699.2678-.08185.5174-.01826 1.0165.10891 3.8863.99016 6.9457 4.04957 7.9359 7.93583.1271.49913.1907.74873.1089 1.01653-.0654.2137-.246.4462-.437.5623-.2393.1454-.5354.1454-1.1275.1454h-7.4045c-.28 0-.42 0-.527-.0545-.0941-.0479-.1706-.1244-.2185-.2185-.0545-.107-.0545-.247-.0545-.527z"/></g></svg>

<svg width="24" height="24" viewBox="0 0 24 24" fill="none" xmlns="http://www.w3.org/2000/svg">
<path d="M11 2.7955C11 2.20338 11 1.90732 10.8546 1.66802C10.7385 1.47704 10.506 1.29634 10.2923 1.23102C10.0245 1.14918 9.77489 1.21277 9.27574 1.33995C4.51831 2.55209 1 6.86517 1 12C1 18.0751 5.92487 23 12 23C13.4348 23 14.8055 22.7253 16.0623 22.2256C16.5406 22.0354 16.7797 21.9403 16.9484 21.7167C17.083 21.5382 17.1649 21.2553 17.1466 21.0325C17.1236 20.7534 16.9496 20.5139 16.6016 20.0349L11.1977 12.5971C11.0735 12.4304 11 12.2238 11 12V2.7955Z" fill="#801ED7"/>
<path d="M21.2045 13C21.7966 13 22.0926 13 22.3319 13.1454C22.5229 13.2615 22.7036 13.494 22.7689 13.7077C22.8508 13.9755 22.7872 14.225 22.6601 14.7239C22.2522 16.325 21.4931 17.7858 20.4696 19.0194C20.14 19.4167 19.9752 19.6153 19.7104 19.7066C19.4989 19.7795 19.2048 19.7701 18.9985 19.6837C18.7401 19.5756 18.5658 19.3358 18.2173 18.8561L14.8855 14.2702C14.5877 13.8603 14.4388 13.6554 14.4442 13.4843C14.4488 13.3353 14.5197 13.1962 14.6375 13.1049C14.7727 13 15.0261 13 15.5327 13H21.2045Z" fill="#801ED7"/>
<path d="M13 2.7955C13 2.20338 13 1.90733 13.1454 1.66802C13.2615 1.47704 13.494 1.29634 13.7077 1.23103C13.9755 1.14918 14.2251 1.21277 14.7242 1.33994C18.6105 2.3301 21.6699 5.38951 22.6601 9.27577C22.7872 9.7749 22.8508 10.0245 22.769 10.2923C22.7036 10.506 22.523 10.7385 22.332 10.8546C22.0927 11 21.7966 11 21.2045 11L13.8 11C13.52 11 13.38 11 13.273 10.9455C13.1789 10.8976 13.1024 10.8211 13.0545 10.727C13 10.62 13 10.48 13 10.2V2.7955Z" fill="#801ED7"/>
</svg>
